X:1
T:Title
%%score 1 { ( 2 4 ) | 3 }
L:1/8
Q:1/4=125
M:6/8
K:C
V:1 treble nm="Hautbois"
V:2 bass nm="Piano"
V:4 bass 
V:3 bass 
V:1
"^Allegro" z6 | z6 | z6 |!p! z c d (cB) A | A2 c B A ^G |!<(! A2 c B A ^G!<)! | %6
!mf!!>(! (B3 A2)!>)! z |!p! z c d (cB) A | A2 c B A ^G |!<(! A2 c B A ^G!<)! | %10
!mf!!>(! (B3 A2)!>)! z |!mf! G2 G (Ac) e | e2 G d e f | g3- g!>(! f e | d2 e d2 c!>)! | %15
!p! B e B (A^G) E |!<(! E2 E (AB) c!<)! |!mf! (e3-!>(! ed) c | (B2 E)!>)!!pp! A3- | A2 z z2 z | %20
 !fermata!z6 |] %21
V:2
!p! z (E,C) z (E,B,) |!p! z (E,C) z (E,B,) |[K:treble]!p! (A,EA) (EBe) | (A,EA) (EBe) | %4
 (A,EA) (EBe) |!<(! (A,EA) (EBe)!<)! |!mp!!>(! (E,^G,D)!>)! [E,A,C] z z |!p! (A,EA) (EBe) | %8
 (A,EA) (EBe) |!<(! (A,EA) (EBe)!<)! |!mp!!>(! (E,^G,D)!>)! [E,A,C] z z |!mp! (E,G,C) (F,A,C) | %12
 (E,G,C) (F,A,D) |!>(! (E,G,C) (E,G,C)!>)! |!p!!>(! (E,^G,D) (E,A,C)!>)! |!pp! (E,B,E) (E,A,E) | %16
!<(! (E,B,E) (E,A,E)!<)! |!mf!!>(! (E,^G,D)!>)!!p! [E,A,C] z z | %18
!pp!!<(! (E,^G,D)!<)!!p!!>(! (A,CE) | (A,CE)!>)!!p! (A,CE) | !fermata!A,6 |] %21
V:3
 (A,,, A,,2) (A,,, G,,2) | (A,,, A,,2) (A,,, G,,2) | (A,,, A,,2) (A,,, G,,2) | %3
 (A,,, A,,2) (A,,, G,,2) | (A,,, A,,2) (A,,, G,,2) | (A,,, A,,2) (A,,, G,,2) | %6
 (E,,, E,,2) A,,,A,,A,,, | (A,,, A,,2) (A,,, G,,2) | (A,,, A,,2) (A,,, G,,2) | %9
 (A,,, A,,2) (A,,, G,,2) | (E,,, E,,2) A,,,A,,A,,, | (C,, C,2) (C,, C,2) | (C,, C,2) (C,, C,2) | %13
 (C,, C,2) (C,, C,2) | (E,,, E,,2) (A,,, A,,2) | (^G,,, ^G,,2) (A,,, A,,2) | %16
 (^G,,, ^G,,2) (A,,, A,,2) | (E,,, E,,2) A,,, A,,2 | (E,,, E,,2) A,,, A,,2 | %19
 (A,,, A,,2) (A,,, A,,2) | !fermata![A,,,E,,]6 |] %21
V:4
 x6 | x6 |[K:treble] x6 | x6 | x6 | x6 | x6 | x6 | x6 | x6 | x6 | x6 | x6 | x6 | x6 | x6 | x6 | %17
 x6 | x3 E,3 | E,3 E,3 | E,6 |] %21

